X:1
T:Jeune gallant
T:Jeune gallant
T:Jacques Clemens non papa
C:Jacques Clemens non papa
%%score [ 1 [ 2 3 ] 4 ]
L:1/8
Q:1/4=92
M:2/2
K:F
V:1 treble nm="Superius" snm="S"
V:2 treble-8 nm="Tenor 1" snm="T 1"
V:3 treble-8 nm="Tenor 2" snm="T 2"
V:4 bass nm="Bassus" snm="B"
V:1
 c2 cB A2 G2 | F2 E2 D2 D2 | A4 z4 | z8 | c2 cB A2 G2 | F2 E2 D2 D2 | C4 z4 | c2 cB A2 G2 | %8
w: Jeu- ne gal- lant, qui|d'en- vi- eulx ef-|fort,||jeu- ne gal- lant, qui|d'en- vi- eulx ef-|fort,|os- ter me veult de|
 F2 ED EDEF | G2 F4 ED | E2 C4 DE | F2 F2 G2 A2 | B2 B2 A3 G | F2 E2 F2 G2- | GF F4 E2 | F4 A4 | %16
w: mon a- * * * * *|my tant _ _|chier, os- ter me|veult de mon a-|my tant _ _|_ _ _ _||chier, à|
 A2 F2 G4- | G2 G2 G2 G2 | F6 F2 | E3 D/C/ D4 | E2 E2 F2 F2 | G2 B2 B2 B2 | A2 G2 A4- | A4 z2 B2 | %24
w: ton cau- ser|_ et des- pi-|teulx ra-||port, con- train- te|suis à haul- te|voix cri- er,|_ ha,-|
 B2 B2 A4 | A2 AA A2 AB | G2 G2 A2 B2 | A2 G2 F2 A2- | A2 GF E4 | z2 G2 G4 | G4 F2 A2 | %31
w: maul- dict sois,|ha, maul- dict sois, maul- dict|sois qui le blas-|* * * mez|_ si _ fort,|in- ces-|sa- ment d'ung|
 G2 F2 F2 E2 | F4 z2 F2- | F2 F2 F2 E2 | D2 B4 B2 | B2 B2 A4- | A2 d4 d2 | d2 B2 c4 | z2 c4 A2 | %39
w: faulx cou- ra- g'et|fier, mais|_ plus le blas-|mez, luy fai-|sant grant tort,|_ luy fai-|sant grant tort,|plus oul-|
 F2 G2 z2 c2 | A2 G2 c2 F2- | F2 G2 A2 B2 | G2 A2 F2 G2- | G2 F4 E2 | F4 z2 c2- | c2 A2 F2 G2 | %46
w: tre'ay- mer, plus|oul- tre'ay- mer je|_ pre- tens sans|dan- * * *||gier, plus|_ oul- tre'ay- mer,|
 z2 c2 A2 F2 | c3 B A2 G2- | GF F4 E2 | F8- | F8- | F8- | F8- | F8 |] %54
w: plus oul- tre'ay-|mer je pre- tens|_ _ sans dan-|gier.|_||||
V:2
 F2 AB c2 c2 | d2 c2 f4- | f2 ed ed cB | A2 c2 c2 B2 | A2 G2 F2 E2 | F2 c2 A2 B2 | G2 A3 G F2- | %7
w: Jeu- ne gal- lant, qui|d'en- vi- eulx|_ ef- * * * * *|fort, qui d'en- vi-|eulx ef- fort, qui|d'en- * * *||
 F2 E2 F2 G2 | d4 c4 | z4 c2 cB | A2 G2 F2 D2 | A4 G2 F2 | G4 c2 cB | A2 G2 F2 c2- | cA d2 c4 | %15
w: * vi- eulx _|ef- fort,|os- ter me|veulx de mon _|a- my tant|chier, os- ter me|veult de mon a-|* my tant chier,|
 z2 f2 f2 f2 | c2 c2 _e3 e |"^b""^b" e2 e2 B2 G2 | d2 d2 c2 B2 |"^-natural" cG c4 B2 | %20
w: à ton cau-|ser et des- pi-|teulx ra- port, à|ton cau- ser et|des- pi- teulx ra-|
 c2 c2 c2 d2 | e2 f2 f3 f | f2 e2 f4 | f2 ff f2 ff | g4 f2 ff | c2 f2 f2 f2 | e2 e2 f2 d2 | %27
w: port, con- train- te|suis à haul- te|voix cri- er,|ha, maul- dict sois, maul- dict|sois, ha, maul- dict|fois, ha, maul- dict|sois qui le blas-|
 f2 e2 dc c2- | c2 B2 c4 | z2 c2 d4 | _e4 c2 f2 | d2 c2 d2 c2 | A4 z2 c2- | c2 c2 d2 cB | %34
w: * * * * mez|_ si fort,|in- ces-|sa- ment d'ung|faulx cou- ra- g'et|fier, mais|_ plus le blas- *|
 A2 B2 F2 f2- | f2 e2 f2 c2 | d3 c B2 A2- | A2 G2 A4 | G4 z2 c2 | d2 e2 f2 c2 | d2 e2 A2 c2 | %41
w: mer, luy fai- sant|_ grant tort, luy|fai- * * sant|_ grant _|tort, plus|oul- tre'ay- mer, plus|oul- tre'ay- mer, plus|
 d2 e2 f2 d2 | e2 f2 (3c2 d2 e2 | c2 d2 c2 c2- | c2 A2 F2 G2 | z2 c2 d2 e2 | cB AG F2 c2- | %47
w: oul- tre'ay- mer je|pre- tens sans _ _|dan- * gier, plus|_ oul- tre'ay- mer,|plus oul- tre'ay-|mer _ _ _ _ je-|
 cd e2 f2 _e2 | c2 d2 c2 c2- | c2 A4 F2 | f3 e d2 c2 | d2 c3 B B2- | B2 AG A4- | A8 |] %54
w: * * pre- tens sans|dan- * gier, plus|_ oul- tre'ay-|mer _ _ je|pre- tens _ sans|_ dan- * gier.|_|
V:3
 z8 | z8 | c2 cB A2 G2 | F2 E2 D2 D2 | C4 c2 cB | A2 G3 F F2- | F2 E2 F2 F2 | C4 c2 cG | %8
w: ||Jeu- ne gal- lant, qui|d'en- vi- eulx ef-|fort, jeu- ne gal-|lant, qui _ d'en-|* vi- eulx ef-|fort, os ter me|
 A2 B2 G2 c2 | B2 A2 G4 | c2 cB A3 G | F2 E2 DC F2- | F2 E2 F4 | c2 cB A2 G2 | A2 B2 G2 G2 | F8 | %16
w: veult de mon a-|my tant chier,|os- ter de mon _|_ a- my _ _|_ tant chier,|os- ter me veult de|mon a- my tant|chier,|
 z2 A2 c2 c2 | B2 G4 B2- | B2 B2 A2 F2 | G4 z2 G2- | G2 c2 A2 F2 | c2 d4 d2 | c2 B2 c4- | %23
w: à ton cau-|ser et des-|* pi- teulx ra-|port, con-|* train- te suis|à haul- te|voix cri- er,|
 c4 d2 dd | d2 de c4 | z2 c2 d2 d2 | c3 c c2 B2 | c3 B AG FE | F2 F2 G4 | z2 G2 B4- | B2 B2 A2 c2 | %31
w: _ ha, maul- dict|sois, maul- dict sois,|ha, maul- dict|sois qui le blas-||mez si fort,|in ces-|* sa- ment d'ung|
 B2 A2 G2 G2 | F2 c3 B AG | A2 A2 B2 G2 | F2 d4 d2 | d2 B2 cB AG | F4 z2 F2- | F2 D2 E2 F2- | %38
w: faulx cou- ra- g'et|fier, mais _ _ _|_ plus le blas-|mez, luy fai-|sant grant tort, _ _ _|_ luy|_ fai- * sant|
 F2 E2 F4 | z2 c4 A2 | F2 c3 B AG | F2 c2 A2 F2 | c3 B A2 G2 | A2 B2 G4 | F2 c2 d2 e2 | A4 z2 c2 | %46
w: _ grant tort,|plus oul-|tre'ay- mer, _ _ _|_ plus oul- tre'ay-|mer je pre- tens|sans _ dan-|gier, plus oul- tre'ay-|mer, plus|
 A2 F2 c3 B | A2 G2 F2 G2 | A2 B2 G4 | F2 c4 A2 | F2 B4 A2 | B2 c2 d2 d2 | c8- | c8 |] %54
w: oul- tre'ay- mer _|_ je pre- tens|sans _ dan-|gier, plus oul-|tre'ay- mer je|pre- tens sans dan-|gier.|_|
V:4
 z8 | z8 | F,,2 A,,B,, C,2 C,2 | D,2 C,2 F,4- | F,2 E,2 F,2 C,2 | D,2 E,2 F,2 B,,2 | C,4 C2 CB, | %7
w: ||Jeu- ne gal- lant, qui|d'en- vi- eulx|_ ef- fort, qui|d'en- vi- eulx ef-|fort, os- ter me|
 A,2 G,2 F,2 E,2 | D,2 B,,2 C,3 D, | _E,2 F,2 C,4- | C,4 F,2 F,E, | D,2 C,2 B,,2 A,,2 | %12
w: veult de mon _|_ a- my _|_ tant chier,|_ os- ter me|veult de mon a-|
 G,,2 G,,2 F,,2 F,2 | F,2 C,2 D,2 E,2 | F,2 B,,2 C,2 C,2 | F,,4 z2 F,2 | F,2 F,2 C,2 C,2 | %17
w: my tant chier, os-|ter me veult de|mon a- my tant|chier, à|ton cau- ser et|
 _E,3 E, E,2 E,2 | B,,C, D,E, F,2 D,2 | C,4 G,4 | C,2 C,2 F,2 D,2 | C,2 B,,2 B,3 B, | %22
w: des- pi- teulx ra-|port, _ _ _ _ _|_ con-|train- te suis à|haul- * * te|
 F,2 G,2 F,4- | F,4 B,2 B,B, | G,2 G,E, F,4 | F,2 F,F, D,2 D,B,, | C,2 C,2 F,2 G,2 | F,2 C,2 D,4- | %28
w: voix cri- er,|_ ha, maul- dict|sois, maul- dict sois,|ha, maul- dict sois, maul- dict|sois qui le blas-|mer _ si|
 D,4 C,4 | z2 C,2 G,4 | _E,4 F,2 F,,2 | G,,2 A,,2 B,,2 C,2 | F,,4 F,4- | F,2 F,2 B,,2 C,2 | %34
w: _ fort,|in- ces-|sa- ment d'ung|faulx cou- ra- g'et|fier, mais|_ plus le blas-|
 D,2 B,,4 B,,2 | B,2 G,2 F,3 E, | D,C, D,3 C, B,,A,, | B,,4 A,,3 B,, | C,4 F,,2 F,2 | D,2 C,2 F,4 | %40
w: mez, luy fai-|sant grant _ _|_ _ _ _ _ _||* tort, plus|oul- tre'ay- mer,|
 z4 F,4 | D,2 C,2 F,2 G,2 | C,2 F,4 E,2 | F,2 B,,2 C,4 | F,,2 F,2 D,2 C,2 | F,2 F,2 D,2 C,2 | %46
w: plus|oul- tre'ay- mer je|pre- tens sans|_ _ dan-|gier, plus oul- tre'ay-|mer,- plus oul- tre'ay-|
 F,6 E,2 | F,2 C,2 D,2 E,2 |"^b" F,2 B,,2 C,4 | F,,4 F,4 | D,2 B,,2 F,2 F,,2 | %51
w: mer je|pre- tens sans _|_ _ dan-|gier, plus|oul- tre'ay- mer je|
 B,,2 A,,2 B,,2 B,,2 | F,,8- | F,,8 |] %54
w: pre- tens sans dan-|gier.|_|

